X: 163
T: Kitty Quinn
N:"Moderate"
B:O'Neill's 163
Z:Transcribed by henrik.norbeck@mailbox.swipnet.se
M:6/8
L:1/8
K:Amix
A|(ABd) (.d2 .d)|(edc) (.d2 .d)|(.d2 .d) ede|fdB B2 g|
(fa).f g2 e|(fa)f g2 e|dAd (f2 e)|dBA A2:|
A|(ABc) (dcd)|(Bcd) (ede)|(ABc) (.d2 .e)|fdB B2 g|
(fa).f g2 e|(fa).f g2 e|dAd (f2 e)|dBA A2:|


